X:4
T:Scales of B flat
M:4/4
L:1/4
K:Bb
"2"B, "1"C "2"D "3"E| "1"F "2"G "3"A "4"B|\
"1"c "2"d "3"e "1"f | "2"g "3"a "4"b2 |\
"4"b "3"a "2"g "1"f| "3"e "2"d "1"c "4"B|\
"3"A "2"G "1"F "3"E| "2"D "1"C "2"B,2||
